X: 29494
T: Nikki's Leap
R: jig
M: 6/8
K: Emajor
|:egg gfe|bgg gfe|eaf gef|dec dBe|
egg gfe|bgg gfe|eaf gef|dee e3:|
|:cee edc|Bgf e3|eaf gef|dec dBe|
cee edc|Bgf e3|eaf gef|dee e3:|

